img/logos/stylus.svg

<?xml version="1.0" encoding="UTF-8" standalone="no" ?>
<svg width="256px" height="244px" viewBox="0 0 256 244" version="1.1" xmlns="http://www.w3.org/2000/svg" xmlns:xlink="http://www.w3.org/1999/xlink" preserveAspectRatio="xMinYMin meet">
    <g>
        <path d="M32.1666415,98.573283 C35.0671698,98.573283 37.413434,98.9693585 39.194566,99.762717 C40.9769057,100.554868 41.8668679,101.543849 41.8668679,102.732075 C41.8668679,104.185962 41.5009811,105.834264 40.7776604,107.680604 C40.0495094,109.529358 39.3563774,111.04483 38.6982642,112.233057 C38.4326038,112.497509 38.1053585,112.530113 37.709283,112.333283 C37.3132075,112.134038 37.1139623,111.772981 37.1139623,111.244075 C37.5112453,110.322717 37.709283,109.00166 37.709283,107.284528 C37.709283,105.438189 37.2141887,103.917887 36.224,102.732075 C35.2350189,101.543849 33.8801509,100.950943 32.1666415,100.950943 C29.9206038,100.950943 28.109283,101.642868 26.7230189,103.029132 C25.3379623,104.414189 24.6448302,106.36317 24.6448302,108.866415 C24.6448302,110.979623 25.2039245,112.992604 26.3269434,114.904151 C27.4463396,116.821736 28.7033962,118.734491 30.0884528,120.646038 C31.4735094,122.558792 32.7607547,124.605585 33.9477736,126.782792 C35.136,128.961208 35.7301132,131.435472 35.7301132,134.205585 C35.7301132,138.954868 33.8161509,142.649962 29.9906415,145.288453 C26.1615094,147.930566 21.146566,149.248 14.9470189,149.248 C10.4597736,149.248 6.93011321,148.523472 4.35683019,147.070792 C1.78233962,145.620528 0.497509434,144.038642 0.497509434,142.321509 C0.497509434,141.796226 0.694339623,141.068075 1.09041509,140.143094 C1.48649057,139.221736 2.01177358,138.232755 2.67471698,137.172528 C3.33283019,136.11834 4.05977358,135.065358 4.85313208,134.005132 C5.64407547,132.950943 6.50022642,132.094792 7.42520755,131.434264 C7.82128302,131.169811 8.18354717,131.233811 8.51441509,131.631094 C8.84286792,132.02717 8.87667925,132.423245 8.61464151,132.819321 C7.82249057,133.609057 7.22958491,134.436226 6.83230189,135.293585 C6.43622642,136.150943 6.23818868,137.307774 6.23818868,138.75683 C6.23818868,141.130868 7.03033962,143.081057 8.61464151,144.594113 C10.1977358,146.114415 12.2421132,146.871547 14.7501887,146.871547 C18.1796226,146.871547 20.8519245,145.91517 22.7670943,144.001208 C24.6786415,142.090868 25.6362264,139.745811 25.6362264,136.974491 C25.6362264,134.467623 25.074717,132.124981 23.9541132,129.947774 C22.8310943,127.769358 21.6102642,125.659774 20.2928302,123.612981 C18.9717736,121.567396 17.7497358,119.489208 16.6303396,117.376 C15.5073208,115.26883 14.9482264,113.024 14.9482264,110.645132 C14.9482264,107.218113 16.3984906,104.346566 19.3026415,102.037736 C22.2019623,99.7337358 26.4911698,98.573283 32.1666415,98.573283 L32.1666415,98.573283 Z" fill="#606060"></path>
        <path d="M86.2031698,99.5658868 C86.8624906,99.8303396 87.1269434,100.195019 86.9965283,100.655094 C86.8624906,101.118792 86.2695849,101.479849 85.2141887,101.744302 C83.2338113,101.744302 80.9587925,101.811925 78.3855094,101.941132 C75.8110189,102.072755 73.0710943,102.273208 70.170566,102.534038 C67.5284528,109.002868 65.3524528,115.301434 63.6377358,121.439396 C61.9206038,127.573736 61.0656604,132.557283 61.0656604,136.384 C61.0656604,140.86883 62.7779623,143.111245 66.2110189,143.111245 C69.6416604,143.111245 73.4683774,140.144302 77.6935849,134.206792 C78.0884528,133.94234 78.450717,133.94234 78.7803774,134.206792 C79.1088302,134.471245 79.2078491,134.931321 79.0786415,135.591849 C76.8326038,139.286943 73.9960755,142.489358 70.5666415,145.193057 C67.1335849,147.89917 63.7693585,149.249208 60.4715472,149.249208 C57.0384906,149.249208 54.4990189,148.428075 52.850717,146.774943 C51.2,145.125434 50.3764528,142.850415 50.3764528,139.945057 C50.3764528,136.120755 51.2978113,130.840151 53.146566,124.110491 C54.9941132,117.38083 57.3693585,110.521962 60.2735094,103.524226 C56.8404528,103.920302 53.6742642,104.45283 50.7725283,105.108528 C50.1107925,104.980528 49.9453585,104.648453 50.277434,104.119547 C50.6046792,103.594264 51.1987925,103.03034 52.058566,102.437434 C52.9135094,101.840906 53.938717,101.315623 55.1257358,100.851925 C56.3127547,100.391849 57.434566,100.16 58.4911698,100.16 L60.0754717,100.16 C60.6019623,100.16 61.1308679,100.094792 61.658566,99.9631698 C63.3720755,96.1364528 65.1544151,92.4413585 67.0031698,88.8766792 C68.8495094,85.3132075 70.6958491,82.0830189 72.5458113,79.1764528 C73.3367547,78.2550943 74.4259623,77.4303396 75.8110189,76.7021887 C77.1960755,75.9800755 78.5485283,75.4173585 79.8683774,75.0200755 C81.1858113,74.624 82.2750189,74.394566 83.136,74.3269434 C83.9921509,74.2629434 84.3532075,74.4947925 84.2252075,75.0200755 C81.9791698,78.4543396 79.7717736,82.2786415 77.5933585,86.501434 C75.4149434,90.725434 73.3379623,95.1462642 71.3575849,99.762717 C73.8644528,99.6335094 76.4063396,99.5658868 78.9784151,99.5658868 C81.5529057,99.5658868 83.9571321,99.5658868 86.2031698,99.5658868 L86.2031698,99.5658868 Z" fill="#606060"></path>
        <path d="M206.298566,0.527698113 C208.277736,0.527698113 209.892226,1.024 211.149283,2.01298113 C212.400302,3.00196226 213.25766,4.32301887 213.721358,5.9725283 C214.182642,7.62203774 214.246642,9.50339623 213.919396,11.6141887 C213.588528,13.7273962 212.831396,15.8381887 211.64317,17.9477736 C211.377509,18.2122264 211.049057,18.2122264 210.652981,17.9477736 C210.258113,17.6833208 209.992453,17.3548679 209.862038,16.9587925 C210.125283,15.3744906 209.566189,14.0558491 208.178717,12.9992453 C206.79366,11.9450566 204.646642,11.4149434 201.746113,11.4149434 C196.333887,11.4149434 190.891472,13.4279245 185.416453,17.4526792 C179.939019,21.4798491 174.627019,26.7930566 169.48166,33.3874717 C164.335094,39.9879245 159.516981,47.5761509 155.032151,56.1521509 C150.543698,64.730566 146.650566,73.5722264 143.352755,82.6759245 C140.053736,91.7808302 137.445434,100.820528 135.533887,109.793811 C133.621132,118.769509 132.665962,126.949434 132.665962,134.34083 C132.665962,138.296755 133.785358,140.27834 136.031396,140.27834 C137.614491,140.27834 139.163774,139.617811 140.68166,138.296755 C142.197132,136.979321 143.949283,135.001358 145.928453,132.359245 C146.323321,132.098415 146.685585,132.131019 147.015245,132.459472 C147.343698,132.791547 147.442717,133.219019 147.313509,133.744302 C144.671396,137.703849 141.57283,141.002868 138.009358,143.641358 C134.447094,146.283472 131.210868,147.600906 128.31034,147.600906 C125.802264,147.600906 124.054943,146.87517 123.065962,145.422491 C122.076981,143.972226 121.580679,142.127094 121.580679,139.881057 C121.580679,133.679094 122.898113,125.924226 125.540226,116.623698 C128.178717,107.319547 131.705962,97.4901132 136.130415,87.1293585 C140.551245,76.7710189 145.664,66.445283 151.471094,56.1521509 C157.276981,45.8590189 163.314717,36.5898868 169.584302,28.3423396 C175.850264,20.0947925 182.15366,13.3965283 188.487245,8.24875472 C194.817208,3.10098113 200.754717,0.527698113 206.298566,0.527698113 L206.298566,0.527698113 Z" fill="#B3D107"></path>
        <path d="M30.5497358,243.760302 C28.5693585,243.760302 26.9548679,243.265208 25.6990189,242.276226 C24.4467925,241.287245 23.589434,239.966189 23.1257358,238.316679 C22.6656604,236.664755 22.6004528,234.785811 22.9276981,232.675019 C23.2597736,230.561811 24.0169057,228.452226 25.2039245,226.341434 C25.4695849,226.074566 25.7980377,226.074566 26.1941132,226.341434 C26.5889811,226.603472 26.8546415,226.93434 26.9850566,227.330415 C26.7230189,228.914717 27.2821132,230.233358 28.6683774,231.289962 C30.053434,232.342943 32.1992453,232.871849 35.1009811,232.871849 C40.5132075,232.871849 45.9568302,230.858868 51.4318491,226.834113 C56.9080755,222.810566 62.2200755,217.498566 67.3666415,210.902943 C72.5132075,204.302491 77.3313208,196.715472 81.8161509,188.138264 C86.3033962,179.559849 90.1977358,170.718189 93.4943396,161.613283 C96.7933585,152.508377 99.4016604,143.468679 101.314415,134.495396 C103.22717,125.519698 104.18234,117.339774 104.18234,109.949585 C104.18234,105.990038 103.062943,104.012075 100.816906,104.012075 C99.2326038,104.012075 97.6833208,104.668981 96.1666415,105.990038 C94.6511698,107.307472 92.8990189,109.289057 90.9198491,111.929962 C90.5249811,112.190792 90.162717,112.158189 89.8330566,111.829736 C89.5046038,111.49766 89.4055849,111.068981 89.5347925,110.541283 C92.1769057,106.585358 95.2754717,103.282717 98.8389434,100.644226 C102.401208,98.0057358 105.636226,96.6883019 108.537962,96.6883019 C111.046038,96.6883019 112.793358,97.4104151 113.78234,98.8630943 C114.771321,100.315774 115.267623,102.162113 115.267623,104.408151 C115.267623,110.610113 113.950189,118.361358 111.308075,127.665509 C108.669585,136.96966 105.14234,146.799094 100.717887,157.159849 C96.2970566,167.518189 91.1843019,177.843925 85.3772075,188.137057 C79.5713208,198.430189 73.5335849,207.699321 67.2652075,215.946868 C60.9992453,224.194415 54.6958491,230.892679 48.3610566,236.038038 C42.0298868,241.185811 36.0923774,243.760302 30.5497358,243.760302 L30.5497358,243.760302 Z" fill="#B3D107"></path>
        <path d="M164.263849,149.248 C158.721208,149.248 155.949887,146.213434 155.949887,140.143094 C155.949887,138.032302 156.178113,135.590642 156.641811,132.820528 C157.103094,130.046792 157.831245,127.180075 158.820226,124.209509 C159.809208,121.238943 160.962415,118.239396 162.283472,115.201208 C163.600906,112.170264 165.184,109.263698 167.033962,106.493585 C165.581283,107.418566 164.196226,108.374943 162.878792,109.363925 C161.557736,110.352906 160.370717,111.376906 159.315321,112.431094 C158.919245,112.69917 158.554566,112.598943 158.226113,112.135245 C157.896453,111.673962 157.862642,111.245283 158.127094,110.849208 C160.369509,108.471547 163.570717,106.033509 167.728302,103.523019 C171.883472,101.019774 175.874415,99.0381887 179.703547,97.5855094 C180.362868,97.5855094 180.856755,97.7533585 181.187623,98.0818113 C181.516075,98.4138868 181.551094,98.842566 181.287849,99.3666415 C177.062642,104.911698 173.665811,110.91683 171.092528,117.379623 C168.520453,123.848453 167.233208,130.118038 167.233208,136.184755 C167.233208,140.015094 168.422642,141.925434 170.796679,141.925434 C172.510189,141.925434 174.622189,140.771019 177.130264,138.462189 C179.637132,136.152151 182.278038,133.117585 185.050566,129.354868 C187.820679,125.594566 190.622189,121.33917 193.46234,116.589887 C196.298868,111.838189 198.905962,107.021283 201.281208,102.136755 C201.676075,101.348226 202.831698,100.554868 204.744453,99.762717 C206.657208,98.9693585 208.603774,98.573283 210.584151,98.573283 C212.564528,98.573283 213.157434,99.1046038 212.366491,100.158792 C210.517736,103.593057 208.903245,106.789434 207.515774,109.758792 C206.130717,112.726943 204.973887,115.664906 204.052528,118.566642 C203.127547,121.469585 202.435623,124.403925 201.97434,127.374491 C201.509434,130.345057 201.281208,133.609057 201.281208,137.171321 C201.281208,141.397736 202.401811,143.504906 204.646642,143.504906 C206.889057,143.504906 209.397132,141.526943 212.168453,137.567396 C212.564528,137.306566 212.960604,137.306566 213.355472,137.567396 C213.751547,137.835472 213.881962,138.231547 213.751547,138.755623 C211.506717,142.187472 209.031245,144.793358 206.328755,146.575698 C203.622642,148.35683 201.148377,149.245585 198.90717,149.245585 C193.363321,149.245585 190.593208,146.014189 190.593208,139.547774 C190.593208,132.818113 191.779019,126.154868 194.155472,119.554415 C189.139321,128.659321 183.86234,135.885283 178.320906,141.229887 C172.775849,146.578113 168.089358,149.248 164.263849,149.248 L164.263849,149.248 Z" fill="#606060"></path>
        <path d="M246.01117,98.573283 C248.911698,98.573283 251.257962,98.9693585 253.039094,99.762717 C254.821434,100.554868 255.711396,101.543849 255.711396,102.732075 C255.711396,104.185962 255.345509,105.834264 254.623396,107.680604 C253.894038,109.529358 253.202113,111.04483 252.542792,112.233057 C252.277132,112.497509 251.949887,112.530113 251.553811,112.333283 C251.157736,112.134038 250.959698,111.772981 250.959698,111.244075 C251.355774,110.322717 251.553811,109.00166 251.553811,107.284528 C251.553811,105.438189 251.059925,103.917887 250.069736,102.732075 C249.080755,101.543849 247.725887,100.950943 246.012377,100.950943 C243.767547,100.950943 241.955019,101.642868 240.568755,103.029132 C239.182491,104.415396 238.490566,106.36317 238.490566,108.866415 C238.490566,110.979623 239.04966,112.992604 240.172679,114.904151 C241.292075,116.821736 242.549132,118.734491 243.934189,120.646038 C245.319245,122.558792 246.606491,124.605585 247.793509,126.782792 C248.981736,128.961208 249.575849,131.435472 249.575849,134.205585 C249.575849,138.954868 247.661887,142.649962 243.83517,145.288453 C240.006038,147.930566 234.992302,149.248 228.791547,149.248 C224.303094,149.248 220.774642,148.523472 218.201358,147.070792 C215.626868,145.620528 214.342038,144.038642 214.342038,142.321509 C214.342038,141.796226 214.538868,141.068075 214.934943,140.143094 C215.331019,139.221736 215.856302,138.232755 216.519245,137.172528 C217.177358,136.11834 217.903094,135.065358 218.696453,134.005132 C219.487396,132.950943 220.344755,132.094792 221.269736,131.434264 C221.665811,131.169811 222.028075,131.233811 222.357736,131.631094 C222.686189,132.02717 222.721208,132.423245 222.457962,132.819321 C221.665811,133.609057 221.072906,134.436226 220.675623,135.293585 C220.279547,136.150943 220.081509,137.307774 220.081509,138.75683 C220.081509,141.130868 220.87366,143.081057 222.457962,144.594113 C224.042264,146.114415 226.085434,146.871547 228.593509,146.871547 C232.022943,146.871547 234.696453,145.91517 236.611623,144.001208 C238.521962,142.090868 239.480755,139.745811 239.480755,136.974491 C239.480755,134.467623 238.918038,132.124981 237.798642,129.947774 C236.675623,127.769358 235.454792,125.659774 234.137358,123.612981 C232.816302,121.567396 231.594264,119.489208 230.47366,117.376 C229.350642,115.26883 228.791547,113.024 228.791547,110.645132 C228.791547,107.218113 230.241811,104.346566 233.145962,102.037736 C236.046491,99.7337358 240.334491,98.573283 246.01117,98.573283 L246.01117,98.573283 Z" fill="#606060"></path>
    </g>
</svg>

<svg width="256" height="244" viewBox="0 0 256 244" xmlns="http://www.w3.org/2000/svg" preserveAspectRatio="xMinYMin meet"><path d="M32.167 98.573c2.9 0 5.246.396 7.028 1.19 1.782.792 2.672 1.78 2.672 2.97 0 1.453-.366 3.1-1.09 4.948-.727 1.85-1.42 3.365-2.08 4.553-.264.265-.592.297-.988.1-.397-.2-.596-.56-.596-1.09.397-.92.595-2.24.595-3.958 0-1.847-.496-3.367-1.486-4.553-.99-1.188-2.344-1.78-4.057-1.78-2.246 0-4.058.69-5.444 2.077-1.385 1.384-2.078 3.333-2.078 5.836 0 2.114.56 4.127 1.682 6.038 1.12 1.918 2.376 3.83 3.76 5.742 1.387 1.913 2.674 3.96 3.86 6.137 1.19 2.178 1.783 4.652 1.783 7.423 0 4.75-1.914 8.444-5.74 11.082-3.828 2.643-8.843 3.96-15.043 3.96-4.487 0-8.017-.725-10.59-2.177-2.575-1.45-3.86-3.03-3.86-4.748 0-.526.197-1.254.593-2.18.396-.92.922-1.91 1.585-2.97.658-1.054 1.385-2.107 2.178-3.167.79-1.054 1.647-1.91 2.572-2.57.396-.265.76-.2 1.09.196.328.397.362.793.1 1.19-.793.79-1.385 1.616-1.783 2.474-.396.857-.594 2.014-.594 3.463 0 2.374.792 4.324 2.377 5.837 1.583 1.52 3.627 2.278 6.135 2.278 3.43 0 6.102-.957 8.017-2.87 1.912-1.91 2.87-4.256 2.87-7.028 0-2.506-.562-4.85-1.683-7.026-1.123-2.18-2.344-4.288-3.66-6.335-1.322-2.046-2.544-4.124-3.664-6.237-1.123-2.107-1.682-4.352-1.682-6.73 0-3.428 1.45-6.3 4.355-8.608 2.9-2.304 7.188-3.465 12.864-3.465zM86.203 99.566c.66.264.924.63.794 1.09-.135.463-.727.824-1.783 1.088-1.98 0-4.255.068-6.828.197-2.575.133-5.315.333-8.215.594-2.642 6.47-4.818 12.767-6.532 18.905-1.717 6.134-2.572 11.117-2.572 14.944 0 4.485 1.712 6.727 5.145 6.727 3.432 0 7.258-2.966 11.484-8.903.394-.265.757-.265 1.086 0 .33.264.428.724.3 1.385-2.247 3.695-5.084 6.897-8.513 9.6-3.433 2.707-6.798 4.057-10.095 4.057-3.434 0-5.973-.822-7.62-2.475-1.652-1.65-2.476-3.925-2.476-6.83 0-3.824.922-9.105 2.77-15.835 1.848-6.73 4.223-13.588 7.128-20.586-3.434.396-6.6.93-9.5 1.585-.663-.13-.83-.462-.497-.99.328-.526.922-1.09 1.782-1.683.854-.596 1.88-1.12 3.066-1.585 1.187-.46 2.31-.692 3.365-.692h1.585c.527 0 1.056-.065 1.584-.197 1.712-3.827 3.494-7.522 5.343-11.086 1.847-3.564 3.693-6.794 5.543-9.7.79-.922 1.88-1.747 3.265-2.475 1.386-.722 2.74-1.285 4.058-1.682 1.318-.396 2.407-.625 3.268-.693.856-.064 1.217.168 1.09.693-2.247 3.434-4.454 7.26-6.633 11.48-2.178 4.225-4.255 8.646-6.235 13.263 2.506-.13 5.048-.197 7.62-.197h7.225z" fill="#606060"/><path d="M206.3.528c1.978 0 3.592.496 4.85 1.485 1.25.99 2.108 2.31 2.57 3.96.463 1.65.527 3.53.2 5.64-.33 2.114-1.09 4.225-2.277 6.335-.265.264-.594.264-.99 0-.395-.265-.66-.593-.79-.99.262-1.584-.297-2.902-1.684-3.96-1.386-1.053-3.533-1.583-6.434-1.583-5.412 0-10.855 2.013-16.33 6.038-5.477 4.027-10.79 9.34-15.934 15.934-5.147 6.6-9.965 14.19-14.45 22.765-4.488 8.58-8.38 17.42-11.68 26.524-3.298 9.105-5.907 18.145-7.818 27.118-1.913 8.976-2.868 17.155-2.868 24.547 0 3.957 1.12 5.938 3.365 5.938 1.584 0 3.134-.66 4.652-1.98 1.515-1.32 3.267-3.297 5.246-5.94.395-.26.758-.227 1.087.1.33.334.428.76.3 1.286-2.644 3.96-5.742 7.26-9.306 9.897-3.563 2.643-6.8 3.96-9.7 3.96-2.508 0-4.255-.725-5.244-2.178-.99-1.45-1.485-3.295-1.485-5.54 0-6.203 1.318-13.958 3.96-23.258 2.64-9.304 6.166-19.134 10.59-29.495 4.42-10.36 9.534-20.685 15.34-30.978 5.807-10.293 11.845-19.562 18.114-27.81 6.266-8.247 12.57-14.945 18.903-20.093C194.817 3.1 200.755.527 206.3.527zM30.55 243.76c-1.98 0-3.595-.495-4.85-1.484-1.253-.99-2.11-2.31-2.574-3.96-.46-1.65-.526-3.53-.198-5.64.332-2.114 1.09-4.224 2.276-6.335.266-.265.594-.265.99 0 .395.263.66.594.79.99-.26 1.585.298 2.903 1.684 3.96 1.385 1.053 3.53 1.582 6.433 1.582 5.413 0 10.857-2.013 16.332-6.038 5.476-4.023 10.788-9.335 15.935-15.93 5.146-6.602 9.964-14.19 14.45-22.766 4.486-8.578 8.38-17.42 11.677-26.525 3.3-9.105 5.908-18.144 7.82-27.118 1.913-8.975 2.868-17.155 2.868-24.545 0-3.96-1.12-5.938-3.365-5.938-1.584 0-3.134.657-4.65 1.978-1.516 1.317-3.268 3.3-5.247 5.94-.395.26-.757.228-1.087-.1-.328-.332-.427-.76-.298-1.29 2.642-3.955 5.74-7.257 9.304-9.896 3.56-2.638 6.796-3.956 9.698-3.956 2.508 0 4.255.722 5.244 2.175.99 1.453 1.486 3.3 1.486 5.545 0 6.202-1.318 13.953-3.96 23.258-2.638 9.304-6.166 19.133-10.59 29.494-4.42 10.358-9.534 20.684-15.34 30.977-5.807 10.293-11.844 19.562-18.113 27.81-6.266 8.247-12.57 14.946-18.904 20.09-6.33 5.15-12.268 7.723-17.81 7.723z" fill="#B3D107"/><path d="M164.264 149.248c-5.543 0-8.314-3.035-8.314-9.105 0-2.11.228-4.552.692-7.322.46-2.773 1.19-5.64 2.178-8.61.99-2.97 2.142-5.97 3.463-9.01 1.318-3.03 2.9-5.936 4.75-8.706-1.452.925-2.837 1.88-4.154 2.87-1.322.99-2.51 2.013-3.565 3.067-.396.27-.76.17-1.09-.295-.33-.46-.362-.89-.098-1.286 2.243-2.378 5.444-4.816 9.6-7.327 4.156-2.503 8.147-4.485 11.977-5.937.66 0 1.153.167 1.484.496.328.332.363.76.1 1.285-4.225 5.545-7.622 11.55-10.195 18.013-2.573 6.468-3.86 12.738-3.86 18.805 0 3.83 1.19 5.74 3.564 5.74 1.713 0 3.825-1.154 6.333-3.463 2.507-2.31 5.148-5.344 7.92-9.107 2.77-3.76 5.572-8.016 8.412-12.765 2.837-4.752 5.444-9.57 7.82-14.453.394-.79 1.55-1.582 3.462-2.374 1.913-.794 3.86-1.19 5.84-1.19s2.573.532 1.782 1.586c-1.848 3.433-3.463 6.63-4.85 9.6-1.385 2.967-2.542 5.905-3.463 8.807-.925 2.903-1.617 5.837-2.08 8.807-.464 2.97-.692 6.235-.692 9.797 0 4.228 1.122 6.335 3.367 6.335 2.242 0 4.75-1.978 7.52-5.938.398-.26.794-.26 1.188 0 .397.268.527.665.397 1.19-2.245 3.43-4.72 6.036-7.423 7.82-2.707 1.78-5.182 2.67-7.423 2.67-5.544 0-8.314-3.233-8.314-9.7 0-6.73 1.186-13.392 3.562-19.993-5.016 9.105-10.293 16.33-15.834 21.676-5.544 5.348-10.23 8.018-14.056 8.018zM246.01 98.573c2.902 0 5.248.396 7.03 1.19 1.78.792 2.67 1.78 2.67 2.97 0 1.453-.364 3.1-1.087 4.948-.73 1.85-1.42 3.365-2.08 4.553-.266.265-.593.297-.99.1-.395-.2-.593-.56-.593-1.09.396-.92.594-2.24.594-3.958 0-1.847-.494-3.367-1.484-4.553-.99-1.188-2.344-1.78-4.058-1.78-2.244 0-4.057.69-5.443 2.077-1.388 1.385-2.08 3.333-2.08 5.836 0 2.114.56 4.127 1.683 6.038 1.12 1.918 2.376 3.83 3.76 5.742 1.386 1.913 2.673 3.96 3.86 6.137 1.19 2.178 1.783 4.652 1.783 7.423 0 4.75-1.914 8.444-5.74 11.082-3.83 2.643-8.844 3.96-15.044 3.96-4.49 0-8.017-.725-10.59-2.177-2.575-1.45-3.86-3.03-3.86-4.748 0-.526.197-1.254.593-2.18.396-.92.92-1.91 1.584-2.97.657-1.054 1.383-2.107 2.176-3.167.79-1.054 1.65-1.91 2.574-2.57.396-.265.758-.2 1.088.196.328.397.363.793.1 1.19-.792.79-1.385 1.616-1.782 2.474-.396.857-.594 2.014-.594 3.463 0 2.374.792 4.324 2.376 5.837 1.584 1.52 3.627 2.278 6.136 2.278 3.43 0 6.102-.957 8.018-2.87 1.91-1.91 2.87-4.256 2.87-7.028 0-2.506-.564-4.85-1.683-7.026-1.124-2.18-2.345-4.288-3.663-6.335-1.32-2.046-2.543-4.124-3.663-6.237-1.123-2.107-1.682-4.352-1.682-6.73 0-3.428 1.45-6.3 4.354-8.608 2.9-2.304 7.188-3.465 12.865-3.465z" fill="#606060"/></svg>
